X: 37958
T: Spanish Lady
R: polka
M: 2/4
K: Amajor
B2|:AA AB|dd de|f/f/f/f/ f>e|dB Bf/e/|AA AB|dd de|fa a>f|ed d2:|
e|:fa a>f|ed d>e|fa a>f|ed e2|fa a>f|ed d>e|f/g/f/e/ f>e|dB B2:|

